packages/dnb-design-system-portal/src/docs/quickguide-designer/assets/designers-intentions.svg

<svg width="240" height="104" viewBox="0 0 240 104" fill="none" xmlns="http://www.w3.org/2000/svg">
<rect x="8" y="8" width="64" height="8" fill="#A5E1D2"/>
<rect x="8" y="64" width="64" height="8" fill="#A5E1D2"/>
<rect x="8" y="16" width="8" height="48" fill="#A5E1D2"/>
<rect x="64" y="16" width="8" height="48" fill="#A5E1D2"/>
<rect x="88" y="8" width="64" height="16" fill="#008484"/>
<rect x="88" y="56" width="64" height="16" fill="#008484"/>
<rect x="88" y="24" width="16" height="32" fill="#008484"/>
<rect x="136" y="24" width="16" height="32" fill="#008484"/>
<rect x="168" y="8" width="64" height="24" fill="#14555A"/>
<rect x="168" y="48" width="64" height="24" fill="#14555A"/>
<rect x="168" y="32" width="24" height="16" fill="#14555A"/>
<rect x="208" y="32" width="24" height="16" fill="#14555A"/>
<path d="M42.6063 91.6381V92.4541H37.8423V91.6381H39.8703V85.2901L37.9863 86.4301L37.5423 85.7221L40.0023 84.1861H40.8903V91.6381H42.6063Z" fill="black"/>
<path d="M120.63 84.0541C121.134 84.0541 121.574 84.1541 121.95 84.3541C122.334 84.5541 122.626 84.8301 122.826 85.1821C123.026 85.5261 123.126 85.9181 123.126 86.3581C123.126 86.8701 123.006 87.3661 122.766 87.8461C122.534 88.3261 122.158 88.8541 121.638 89.4301C121.118 89.9981 120.382 90.7181 119.43 91.5901H123.318L123.198 92.4541H118.278V91.6381C119.358 90.6061 120.158 89.7981 120.678 89.2141C121.206 88.6301 121.57 88.1301 121.77 87.7141C121.97 87.2981 122.07 86.8581 122.07 86.3941C122.07 85.9301 121.938 85.5661 121.674 85.3021C121.41 85.0381 121.046 84.9061 120.582 84.9061C120.19 84.9061 119.862 84.9741 119.598 85.1101C119.342 85.2381 119.078 85.4621 118.806 85.7821L118.11 85.2421C118.438 84.8341 118.802 84.5341 119.202 84.3421C119.61 84.1501 120.086 84.0541 120.63 84.0541Z" fill="black"/>
<path d="M199.63 84.0541C200.134 84.0541 200.578 84.1501 200.962 84.3421C201.346 84.5261 201.642 84.7781 201.85 85.0981C202.058 85.4101 202.162 85.7541 202.162 86.1301C202.162 86.6101 202.006 87.0301 201.694 87.3901C201.382 87.7421 201.002 87.9621 200.554 88.0501C201.074 88.0901 201.514 88.2861 201.874 88.6381C202.242 88.9901 202.426 89.4701 202.426 90.0781C202.426 90.5501 202.306 90.9781 202.066 91.3621C201.826 91.7461 201.486 92.0461 201.046 92.2621C200.614 92.4781 200.118 92.5861 199.558 92.5861C199.07 92.5861 198.598 92.4941 198.142 92.3101C197.694 92.1261 197.322 91.8541 197.026 91.4941L197.698 90.9421C197.922 91.2061 198.194 91.4101 198.514 91.5541C198.842 91.6901 199.182 91.7581 199.534 91.7581C200.11 91.7581 200.558 91.6101 200.878 91.3141C201.206 91.0101 201.37 90.5981 201.37 90.0781C201.37 89.0301 200.798 88.5061 199.654 88.5061H198.97L199.09 87.7021H199.582C200.014 87.7021 200.382 87.5821 200.686 87.3421C200.99 87.0941 201.142 86.7341 201.142 86.2621C201.142 85.8221 200.994 85.4821 200.698 85.2421C200.41 84.9941 200.038 84.8701 199.582 84.8701C199.238 84.8701 198.93 84.9301 198.658 85.0501C198.394 85.1701 198.118 85.3621 197.83 85.6261L197.278 85.0141C197.95 84.3741 198.734 84.0541 199.63 84.0541Z" fill="black"/>
</svg>

<svg fill="none" height="104" viewBox="0 0 240 104" width="240" xmlns="http://www.w3.org/2000/svg"><path d="m8 8h64v8h-64zm0 56h64v8h-64zm0-48h8v48h-8zm56 0h8v48h-8z" fill="#a5e1d2"/><path d="m88 8h64v16h-64zm0 48h64v16h-64zm0-32h16v32h-16zm48 0h16v32h-16z" fill="#008484"/><path d="m168 8h64v24h-64zm0 40h64v24h-64zm0-16h24v16h-24zm40 0h24v16h-24z" fill="#14555a"/><path d="m42.6 91.64v.81h-4.76v-.81h2.03v-6.35l-1.88 1.14-.45-.7 2.46-1.55h.89v7.45h1.72zm78.03-7.59c.5 0 .94.1 1.32.3s.68.48.88.83.3.74.3 1.18c0 .51-.12 1-.36 1.49-.24.48-.61 1-1.13 1.58-.52.57-1.26 1.29-2.21 2.16h3.89l-.12.86h-4.92v-.81a45.74 45.74 0 0 0 2.4-2.43c.53-.58.89-1.08 1.09-1.5a3 3 0 0 0 .3-1.32c0-.46-.13-.82-.4-1.09-.26-.26-.62-.4-1.09-.4-.39 0-.72.07-.98.21-.26.13-.52.35-.8.67l-.69-.54c.33-.4.7-.7 1.1-.9.4-.19.88-.29 1.42-.29zm79 0c.5 0 .95.1 1.33.3.39.18.68.43.89.75.2.31.31.65.31 1.03 0 .48-.15.9-.47 1.26a2 2 0 0 1 -1.14.66c.52.04.96.24 1.32.59.37.35.56.83.56 1.44a2.37 2.37 0 0 1 -1.38 2.18 3.75 3.75 0 0 1 -2.9.05 2.8 2.8 0 0 1 -1.12-.82l.67-.55a2.29 2.29 0 0 0 1.83.82 1.9 1.9 0 0 0 1.35-.45c.33-.3.49-.71.49-1.23 0-1.05-.57-1.57-1.72-1.57h-.68l.12-.8h.5c.42 0 .8-.13 1.1-.37.3-.25.45-.6.45-1.08 0-.44-.15-.78-.44-1.02a1.65 1.65 0 0 0 -1.12-.37c-.34 0-.65.06-.92.18s-.54.31-.83.58l-.55-.62a3.3 3.3 0 0 1 2.35-.96z" fill="#000"/></svg>
